assets/img/braze_icons/currency-dollar-circle.svg

<svg fill="none" height="24" viewBox="0 0 24 24" width="24" xmlns="http://www.w3.org/2000/svg"><path clip-rule="evenodd" d="m12 1c-6.07513 0-11 4.92487-11 11 0 6.0751 4.92487 11 11 11 6.0751 0 11-4.9249 11-11 0-6.07513-4.9249-11-11-11zm1 4.5c0-.55228-.4477-1-1-1s-1 .44772-1 1v.5c-1.933 0-3.5 1.567-3.5 3.5s1.567 3.5 3.5 3.5h2c.8284 0 1.5.6716 1.5 1.5s-.6716 1.5-1.5 1.5h-2.1667c-.7363 0-1.3333-.597-1.3333-1.3333 0-.5523-.44771-1-1-1-.55228 0-1 .4477-1 1 0 1.8409 1.49238 3.3333 3.3333 3.3333h.1667v.5c0 .5523.4477 1 1 1s1-.4477 1-1v-.5c1.933 0 3.5-1.567 3.5-3.5s-1.567-3.5-3.5-3.5h-2c-.8284 0-1.5-.6716-1.5-1.5 0-.82843.6716-1.5 1.5-1.5h2.1667c.7363 0 1.3333.59695 1.3333 1.33333 0 .55229.4477.99997 1 .99997s1-.44768 1-.99997c0-1.84095-1.4924-3.33333-3.3333-3.33333h-.1667z" fill="#801ed7" fill-rule="evenodd"/></svg>

<svg width="24" height="24" viewBox="0 0 24 24" fill="none" xmlns="http://www.w3.org/2000/svg">
<path fill-rule="evenodd" clip-rule="evenodd" d="M12 1C5.92487 1 1 5.92487 1 12C1 18.0751 5.92487 23 12 23C18.0751 23 23 18.0751 23 12C23 5.92487 18.0751 1 12 1ZM13 5.5C13 4.94772 12.5523 4.5 12 4.5C11.4477 4.5 11 4.94772 11 5.5V6C9.067 6 7.5 7.567 7.5 9.5C7.5 11.433 9.067 13 11 13H13C13.8284 13 14.5 13.6716 14.5 14.5C14.5 15.3284 13.8284 16 13 16H10.8333C10.097 16 9.5 15.403 9.5 14.6667C9.5 14.1144 9.05229 13.6667 8.5 13.6667C7.94772 13.6667 7.5 14.1144 7.5 14.6667C7.5 16.5076 8.99238 18 10.8333 18H11V18.5C11 19.0523 11.4477 19.5 12 19.5C12.5523 19.5 13 19.0523 13 18.5V18C14.933 18 16.5 16.433 16.5 14.5C16.5 12.567 14.933 11 13 11H11C10.1716 11 9.5 10.3284 9.5 9.5C9.5 8.67157 10.1716 8 11 8H13.1667C13.903 8 14.5 8.59695 14.5 9.33333C14.5 9.88562 14.9477 10.3333 15.5 10.3333C16.0523 10.3333 16.5 9.88562 16.5 9.33333C16.5 7.49238 15.0076 6 13.1667 6H13V5.5Z" fill="#801ED7"/>
</svg>
